X:1
T:The Titanic
M:6/8
L:1/8
K:D
 A| D2 F A2 d|B-A-B A- F3/2 D/2|F-E F D2 E| D3- D2 A| A A2 B2 c| d3c-B A|\
 B c2B-A G| A3- A2 F/2G/2| A A2 B2 c| d e/2- d3/2c-B A| B B2B-A F|\
 A3- A2 A/2A/2| D2 F A2 d|B-A B A- F3/2 D/2| F2 E/2F/2 D2 D| d3- d2||\

